X: 40669
T: Top Of The Stairs, The
R: reel
M: 4/4
K: Amajor
e2 ec d2 cB|Ac c2 BAFG|AFFE FAdf|ecAc B2 cd|
eaec d2 cB|Ac c2 BAFG|AFFE FAdf|ecBc A4:|
A,2 A,C E2 AF|=G2 DG B,G DB,|A,2 A,C E2 AE|GABd cA A2|
fedf ecAc|dB=GB d2 ed|cAAG AFEF|1 =GEDF EA A2:|2 =GEDF EAA^G||
Af f2 af f2|=gf f2 d2 fd|e2 (3eee efaf|ecBc A2 ce|fafd efec|(3
dcB cA BAFG|AFFE FAdf|1 ecBc A2 AG:|2 ecBc A4||

